svg/u2797.svg

<svg viewBox="0 0 128 128" xmlns="http://www.w3.org/2000/svg">
  <path d="M5.93,71.08c0,0-0.14,4.71,1.04,5.84c1.29,1.23,3.01,1.05,5.42,1.05s105.2,0.13,107.34,0 s2.54-1.47,2.68-2.54c0.13-1.07,0.15-3.92,0.15-3.92l-25.31-8.67L5.93,71.08z" fill="#464C4F"/>
  <path d="M46.67,21.87c0,0,0.06,18.92,19.14,18.89c17.4-0.03,18.2-18.34,18.2-18.34L67.54,25.9L46.67,21.87z" fill="#464C4F"/>
  <path d="M45.78,101.59c-0.09,2.13-0.92,7.13,2.19,13.06c2.69,5.13,8.01,8.84,15.7,8.95 c9.35,0.14,14.5-5.1,16.34-9.59c2.21-5.4,1.9-11.74,1.9-11.74s-19.31,1.11-19.98,1.65C61.25,104.47,45.78,101.59,45.78,101.59z" fill="#464C4F"/>
  <path d="M65.27,3.28c-11.11-0.2-18.87,8.57-18.6,18.6c0.24,8.87,8.97,14.59,19.14,14.32 s17.53-7.23,18.2-13.79C84.68,15.86,79.99,3.55,65.27,3.28z" fill="#606265"/>
  <path d="M64.33,86.53c-12.42-0.08-19.5,9.01-18.6,18.07c0.8,8.16,10.17,14.05,18.2,14.19 c7.76,0.13,17.4-6.02,17.94-14.99C82.38,95.24,75.91,86.61,64.33,86.53z" fill="#606265"/>
  <path d="M5.71,50.93c0-2.28,0.67-2.94,4.28-2.94s105.87,0.13,108.55,0.27c2.68,0.13,4.08,1.91,4.08,5.53 c0,3.61-0.09,15.85-0.07,17.36c0.02,1.34-0.4,2.81-3.88,2.81c-3.48,0-107.48,0.13-109.48,0.13s-3.32-0.8-3.32-3.62 C5.87,67.9,5.71,54.41,5.71,50.93z" fill="#606265"/>
  <path d="M52.76,104.98c2.49,0.51,3.08-3.97,6.87-6.87s5.79-4,5.73-5.82c-0.09-2.38-5.73-4.76-11.54,1.06 C49.72,97.45,49.76,104.36,52.76,104.98z" fill="#9A9A9A"/>
  <path d="M54.05,23.08c2.37,0.41,3.44-4.93,6.17-7.31c2.73-2.38,6.02-4.01,4.49-6.26 c-1.32-1.94-6.52-3.26-10.66,2.56S52.02,22.73,54.05,23.08z" fill="#9A9A9A"/>
  <path d="M23.87,51.36c0.2,2.2-2.27,3.56-6.54,7.09c-2.49,2.06-3.6,4.83-5.93,4.4 c-1.37-0.25-1.4-3.11-1.47-6.08c-0.06-2.5,0.15-4.71,0.89-5.54c1.08-1.22,3.33-1.12,5.93-1.22C20.06,49.88,23.75,50.01,23.87,51.36z " fill="#9A9A9A"/>
</svg>

<svg viewBox="0 0 128 128" xmlns="http://www.w3.org/2000/svg">
  <defs/>
  <path d="M5.93,71.08 C5.93,71.08 5.79,75.79 6.97,76.92 C8.26,78.15 9.98,77.97 12.39,77.97 C14.8,77.97 117.59,78.1 119.73,77.97 C121.87,77.84 122.27,76.5 122.41,75.43 C122.54,74.36 122.56,71.51 122.56,71.51 L97.25,62.84 L5.93,71.08 Z" fill="#464C4F"/>
  <path d="M46.67,21.87 C46.67,21.87 46.73,40.79 65.81,40.76 C83.21,40.73 84.01,22.42 84.01,22.42 L67.54,25.9 L46.67,21.87 Z" fill="#464C4F"/>
  <path d="M45.78,101.59 C45.69,103.72 44.86,108.72 47.97,114.65 C50.66,119.78 55.98,123.49 63.67,123.6 C73.02,123.74 78.17,118.5 80.01,114.01 C82.22,108.61 81.91,102.27 81.91,102.27 C81.91,102.27 62.6,103.38 61.93,103.92 C61.25,104.47 45.78,101.59 45.78,101.59 Z" fill="#464C4F"/>
  <path d="M65.27,3.28 C54.16,3.08 46.4,11.85 46.67,21.88 C46.91,30.75 55.64,36.47 65.81,36.2 C75.98,35.93 83.34,28.97 84.01,22.41 C84.68,15.86 79.99,3.55 65.27,3.28 Z" fill="#606265"/>
  <path d="M64.33,86.53 C51.91,86.45 44.83,95.54 45.73,104.6 C46.53,112.76 55.9,118.65 63.93,118.79 C71.69,118.92 81.33,112.77 81.87,103.8 C82.38,95.24 75.91,86.61 64.33,86.53 Z" fill="#606265"/>
  <path d="M5.71,50.93 C5.71,48.65 6.38,47.99 9.99,47.99 C13.6,47.99 115.86,48.12 118.54,48.26 C121.22,48.39 122.62,50.17 122.62,53.79 C122.62,57.4 122.53,69.64 122.55,71.15 C122.57,72.49 122.15,73.96 118.67,73.96 C115.19,73.96 11.19,74.09 9.19,74.09 C7.19,74.09 5.87,73.29 5.87,70.47 C5.87,67.9 5.71,54.41 5.71,50.93 Z" fill="#606265"/>
  <path d="M52.76,104.98 C55.25,105.49 55.84,101.01 59.63,98.11 C63.42,95.21 65.42,94.11 65.36,92.29 C65.27,89.91 59.63,87.53 53.82,93.35 C49.72,97.45 49.76,104.36 52.76,104.98 Z" fill="#9A9A9A"/>
  <path d="M54.05,23.08 C56.42,23.49 57.49,18.15 60.22,15.77 C62.95,13.39 66.24,11.76 64.71,9.51 C63.39,7.57 58.19,6.25 54.05,12.07 C49.91,17.89 52.02,22.73 54.05,23.08 Z" fill="#9A9A9A"/>
  <path d="M23.87,51.36 C24.07,53.56 21.6,54.92 17.33,58.45 C14.84,60.51 13.73,63.28 11.4,62.85 C10.03,62.6 10,59.74 9.93,56.77 C9.87,54.27 10.08,52.06 10.82,51.23 C11.9,50.01 14.15,50.11 16.75,50.01 C20.06,49.88 23.75,50.01 23.87,51.36 Z" fill="#9A9A9A"/>
</svg>
